X:930
T:Bröllopsmarsch 
T:(SvL Skåne nr. 112)
C:efter Johan Ankarloo
R:Marsch
Z:och arr: Åke Persson
O:Näsum, Skåne
B:Svenska Låtar Skåne nr 112
M:4/4
L:1/8
K:G
V:1
|: D2 | G2 D2 B,2 D2 | GF GA B2 GA | B3 G BA AF | G4 z2 :|
|: GA | B2 B2 cBAG | A^GAB A2 DF | 
A2 A2 BA GF | G2 D2 B,2 DG | B3 G BA AF | G4 z2 :|
V:2
|: z2 | B,2 A,2 G,2 A,2 | B,A, B,C D2 B,C | D3 B, DC CA, | B,4 z2 :|
|: z2 | G2 G2 AGFE | FEFG F2 A,D | 
F2 F2 GF ED | B,2 A,2 G,2 A,2 | D3 B, DC CA, | B,4 z2 :|
(:musicend:)

(:music:)
